X:857
T:Source of Spey, The
R:Strathspey
C:MacPherson
B:The Athole Collection
M:C
L:1/8
K:G
B|G<E E2 G>A B<e|d<B B>A G>A B<e|G<E E2 G>A B<e|d>BB>^G A2A:|
B|e>fg>e d>eB>e|d>Bg>e d>eB>g|e>fg>e d<eB<g|d<B B>^G A2 A>B|
e>fg>e d>e B<e|d<Bg>e d>e B<g|e<Bg<B a<B b>a|g>ed>B A2A||

